src/assets/outline/Message1.svg

<svg width="24" height="24" viewBox="0 0 24 24"  xmlns="http://www.w3.org/2000/svg">
<path d="M8 22.3199C7.72 22.3199 7.42998 22.2499 7.16998 22.1099C6.59998 21.8099 6.25 21.2099 6.25 20.5699V19.15C3.23 18.84 1.25 16.6199 1.25 13.4399V7.43994C1.25 3.99994 3.56 1.68994 7 1.68994H17C20.44 1.68994 22.75 3.99994 22.75 7.43994V13.4399C22.75 16.8799 20.44 19.1899 17 19.1899H13.23L8.96997 22.03C8.67997 22.22 8.34 22.3199 8 22.3199ZM7 3.17993C4.42 3.17993 2.75 4.84993 2.75 7.42993V13.43C2.75 16.01 4.42 17.68 7 17.68C7.41 17.68 7.75 18.02 7.75 18.43V20.56C7.75 20.69 7.83 20.75 7.88 20.78C7.93001 20.81 8.03001 20.84 8.14001 20.77L12.59 17.81C12.71 17.73 12.86 17.68 13.01 17.68H17.01C19.59 17.68 21.26 16.01 21.26 13.43V7.42993C21.26 4.84993 19.59 3.17993 17.01 3.17993H7Z" />
</svg>

<?xml version="1.0" encoding="UTF-8"?>
<svg width="24" height="24" viewBox="0 0 24 24" xmlns="http://www.w3.org/2000/svg">
 <path d="m8 22.32c-0.28 0-0.57002-0.07-0.83002-0.21-0.57-0.3-0.91998-0.9-0.91998-1.54v-1.4199c-3.02-0.31-5-2.5301-5-5.7101v-6c0-3.44 2.31-5.75 5.75-5.75h10c3.44 0 5.75 2.31 5.75 5.75v6c0 3.44-2.31 5.75-5.75 5.75h-3.77l-4.26 2.8401c-0.29 0.19-0.62997 0.2899-0.96997 0.2899zm-1-19.14c-2.58 0-4.25 1.67-4.25 4.25v6.0001c0 2.58 1.67 4.25 4.25 4.25 0.41 0 0.75 0.34 0.75 0.75v2.13c0 0.13 0.08 0.19 0.13 0.22 0.05001 0.03 0.15001 0.06 0.26001-0.01l4.45-2.96c0.12-0.08 0.27-0.13 0.42-0.13h4c2.58 0 4.25-1.67 4.25-4.25v-6.0001c0-2.58-1.67-4.25-4.25-4.25h-10.01z"/>
</svg>
